img/hubspot.svg

<svg width="57" height="18" viewBox="0 0 57 18" fill="none" xmlns="http://www.w3.org/2000/svg">
<g clip-path="url(#clip0_323_46)">
<path d="M0.176544 4.01813H2.12911V8.35616H6.24719V4.01813H8.20226V14.6667H6.24719V10.2375H2.12911V14.6667H0.176544V4.01813ZM14.388 11.1983C14.388 12.0897 13.6617 12.8151 12.7705 12.8151C11.879 12.8151 11.1532 12.0897 11.1532 11.1983V6.61371H9.30148V11.1983C9.30148 13.1109 10.8578 14.6667 12.7705 14.6667C14.6828 14.6667 16.239 13.1109 16.239 11.1983V6.61371H14.388V11.1983ZM21.4083 6.66741C20.4898 6.66741 19.8486 6.93396 19.2295 7.54175V4.01813H17.3717V10.5484C17.3717 12.9927 19.139 14.6667 21.1245 14.6667C23.3318 14.6667 25.2658 12.9628 25.2658 10.6671C25.2658 8.40057 23.4824 6.66741 21.4083 6.66741ZM21.4545 12.948C20.1957 12.948 19.2331 11.8967 19.2331 10.6671C19.2331 9.43733 20.1957 8.38569 21.4545 8.38569C22.5211 8.38569 23.4842 9.43733 23.4842 10.6671C23.4842 11.8967 22.5211 12.948 21.4545 12.948ZM28.3859 7.13542C28.3859 6.20158 29.0081 5.9055 29.6893 5.9055C30.2377 5.9055 30.9634 6.32025 31.437 6.82403L32.6514 5.40205C32.0445 4.58742 30.8152 4.02436 29.8079 4.02436C27.7931 4.02436 26.3413 5.19467 26.3413 7.13542C26.3413 10.735 30.7707 9.59396 30.7707 11.6091C30.7707 12.2305 30.1636 12.7792 29.4677 12.7792C28.3711 12.7792 28.0154 12.2459 27.512 11.6828L26.1637 13.075C27.0234 14.1269 28.0896 14.6604 29.3637 14.6604C31.2745 14.6604 32.8151 13.4753 32.8151 11.6234C32.8151 7.624 28.3859 8.86847 28.3859 7.13542ZM37.7057 6.56306C35.7205 6.56306 33.953 8.23606 33.953 10.6809V17.228H35.8106V13.6876C36.4299 14.295 37.0707 14.562 37.9896 14.562C40.0635 14.562 41.8471 12.8291 41.8471 10.5625C41.8471 8.26647 39.9126 6.56306 37.7057 6.56306ZM38.0358 12.8439C36.7771 12.8439 35.8144 11.7912 35.8144 10.5625C35.8144 9.33266 36.7771 8.28102 38.0358 8.28102C39.1022 8.28102 40.0655 9.33266 40.0655 10.5625C40.0655 11.7912 39.1022 12.8439 38.0358 12.8439ZM55.5213 12.948C54.4256 12.948 54.1145 12.4742 54.1145 11.7481V8.53378H55.8177V6.90453H54.1145V4.75641L52.2338 5.60056V12.1481C52.2338 13.8222 53.3888 14.6667 54.9731 14.6667C55.2101 14.6667 55.5364 14.6513 55.7143 14.6075L56.1736 12.919C55.9662 12.9333 55.7293 12.948 55.5213 12.948Z" fill="#45535E"/>
<path d="M50.6223 8.62851C50.2661 8.01579 49.7652 7.52459 49.1389 7.15479C48.6709 6.88234 48.1856 6.70942 47.6387 6.63515V4.68828C48.1856 4.45608 48.525 3.94212 48.525 3.34253C48.525 2.52528 47.8696 1.86301 47.053 1.86301C46.2358 1.86301 45.5689 2.52528 45.5689 3.34253C45.5689 3.94212 45.8887 4.45608 46.4356 4.68828V6.63603C45.9981 6.69925 45.5444 6.83564 45.1301 7.0452C44.2839 6.40251 41.509 4.29409 39.8858 3.06264C39.9243 2.92384 39.9539 2.78078 39.9539 2.62984C39.9539 1.72465 39.2209 0.990967 38.3154 0.990967C37.4099 0.990967 36.6772 1.72465 36.6772 2.62984C36.6772 3.53492 37.4106 4.26883 38.3162 4.26883C38.625 4.26883 38.9107 4.17848 39.1572 4.02995L39.4998 4.28983L44.2069 7.68133C43.958 7.90981 43.7263 8.16968 43.5409 8.46128C43.1652 9.05573 42.9356 9.70979 42.9356 10.4232V10.5721C42.9356 11.0729 43.0308 11.5458 43.1929 11.9899C43.3356 12.3778 43.5443 12.7304 43.8027 13.0492L42.2405 14.6153C42.0141 14.531 41.7683 14.5137 41.5323 14.5654C41.2963 14.6172 41.0802 14.7358 40.9099 14.9071C40.7919 15.0244 40.6984 15.1641 40.6348 15.3178C40.5712 15.4716 40.5387 15.6365 40.5393 15.8029C40.5394 16.1412 40.6712 16.4591 40.9105 16.6983C41.0278 16.8164 41.1674 16.9099 41.3211 16.9737C41.4748 17.0374 41.6397 17.07 41.8061 17.0695C41.9726 17.07 42.1374 17.0374 42.2912 16.9736C42.445 16.9099 42.5846 16.8163 42.702 16.6983C42.8199 16.5809 42.9133 16.4414 42.977 16.2877C43.0406 16.134 43.0732 15.9692 43.0728 15.8029C43.0728 15.6719 43.0525 15.5442 43.0145 15.4228L44.6292 13.8079C44.8505 13.9608 45.0896 14.0895 45.3467 14.2005C45.8536 14.4197 46.4132 14.5532 47.0256 14.5532H47.1378C47.8148 14.5532 48.4535 14.3942 49.0538 14.0689C49.6865 13.7252 50.1816 13.2551 50.5557 12.6549C50.9317 12.0532 51.1387 11.3883 51.1387 10.6568V10.6202C51.1387 9.90065 50.9722 9.23675 50.6223 8.62851ZM48.6494 12.0162C48.2111 12.5032 47.7073 12.8032 47.1378 12.8032H47.044C46.7187 12.8032 46.4005 12.7133 46.089 12.5498C45.7379 12.3698 45.471 12.113 45.2526 11.7878C45.0269 11.4687 44.9044 11.1202 44.9044 10.7507V10.6385C44.9044 10.2753 44.974 9.93084 45.1497 9.60556C45.3375 9.24998 45.5911 8.97348 45.9284 8.75364C46.2596 8.53533 46.6133 8.42825 47.0073 8.42825H47.044C47.4012 8.42825 47.7394 8.49868 48.0585 8.66198C48.3837 8.83611 48.6494 9.074 48.8553 9.38692C49.0554 9.69995 49.1744 10.0376 49.2126 10.4054C49.2187 10.4819 49.2217 10.5602 49.2217 10.635C49.2217 11.1342 49.031 11.5965 48.6494 12.0162Z" fill="#F8761F"/>
</g>
<defs>
<clipPath id="clip0_323_46">
<rect width="56" height="16.3072" fill="white" transform="translate(0.169983 0.985596)"/>
</clipPath>
</defs>
</svg>

<svg width="57" height="18" fill="none" xmlns="http://www.w3.org/2000/svg"><g clip-path="url(#a)"><path d="M.177 4.018h1.952v4.338h4.118V4.018h1.955v10.649H6.247v-4.43H2.13v4.43H.177V4.018Zm14.211 7.18a1.62 1.62 0 0 1-1.617 1.617 1.62 1.62 0 0 1-1.618-1.617V6.614H9.301v4.584a3.473 3.473 0 0 0 3.47 3.469 3.472 3.472 0 0 0 3.468-3.469V6.614h-1.851v4.584Zm7.02-4.53c-.918 0-1.56.266-2.178.874V4.018h-1.858v6.53c0 2.445 1.767 4.119 3.753 4.119 2.207 0 4.14-1.704 4.14-4 0-2.266-1.783-4-3.857-4Zm.046 6.28c-1.258 0-2.22-1.051-2.22-2.28 0-1.23.962-2.282 2.22-2.282 1.067 0 2.03 1.051 2.03 2.281 0 1.23-.963 2.281-2.03 2.281Zm6.932-5.813c0-.933.622-1.23 1.303-1.23.549 0 1.274.415 1.748.919l1.214-1.422c-.607-.815-1.836-1.378-2.843-1.378-2.015 0-3.467 1.17-3.467 3.111 0 3.6 4.43 2.459 4.43 4.474 0 .621-.607 1.17-1.303 1.17-1.097 0-1.453-.533-1.956-1.096l-1.348 1.392c.86 1.052 1.926 1.585 3.2 1.585 1.91 0 3.451-1.185 3.451-3.037 0-3.999-4.43-2.755-4.43-4.488Zm9.32-.572c-1.986 0-3.753 1.673-3.753 4.118v6.547h1.858v-3.54c.619.607 1.26.874 2.179.874 2.073 0 3.857-1.733 3.857-4 0-2.296-1.934-3.999-4.141-3.999Zm.33 6.28c-1.259 0-2.222-1.052-2.222-2.28 0-1.23.963-2.282 2.222-2.282 1.066 0 2.03 1.052 2.03 2.281 0 1.23-.964 2.282-2.03 2.282Zm17.485.105c-1.095 0-1.407-.474-1.407-1.2V8.534h1.704v-1.63h-1.703V4.757l-1.881.845v6.547c0 1.674 1.155 2.519 2.74 2.519.236 0 .562-.016.74-.06l.46-1.688a9.932 9.932 0 0 1-.653.029Z" fill="#45535E"/><path d="M50.622 8.629a4.086 4.086 0 0 0-1.483-1.474 3.983 3.983 0 0 0-1.5-.52V4.688c.547-.232.886-.746.886-1.345 0-.818-.655-1.48-1.472-1.48s-1.484.662-1.484 1.48c0 .6.32 1.113.867 1.345v1.948c-.438.063-.892.2-1.306.41-.846-.643-3.621-2.752-5.244-3.983a1.61 1.61 0 0 0 .068-.433 1.638 1.638 0 1 0-1.638 1.639c.309 0 .595-.09.841-.239l.343.26 4.707 3.391c-.249.229-.48.489-.666.78-.376.595-.605 1.249-.605 1.962v.15c0 .5.095.973.257 1.417.143.388.351.74.61 1.06l-1.563 1.565a1.258 1.258 0 0 0-1.605.703 1.258 1.258 0 0 0-.096.485c0 .338.132.656.371.895a1.259 1.259 0 0 0 1.381.276 1.26 1.26 0 0 0 .686-.686 1.26 1.26 0 0 0 .038-.865l1.614-1.615c.221.153.46.281.718.393.507.219 1.066.352 1.679.352h.112c.677 0 1.316-.159 1.916-.484a3.965 3.965 0 0 0 1.502-1.414 3.71 3.71 0 0 0 .583-1.998v-.037c0-.72-.167-1.383-.517-1.991Zm-1.973 3.387c-.438.487-.942.787-1.511.787h-.094c-.325 0-.643-.09-.955-.253a2.206 2.206 0 0 1-.836-.762 1.777 1.777 0 0 1-.349-1.037v-.112c0-.364.07-.708.246-1.033.188-.356.441-.633.778-.852a1.906 1.906 0 0 1 1.08-.326h.036c.357 0 .695.07 1.015.234.325.174.59.412.796.725.2.313.32.65.358 1.018.006.077.009.155.009.23 0 .5-.191.962-.573 1.381Z" fill="#F8761F"/></g><defs><clipPath id="a"><path fill="#fff" transform="translate(.17 .986)" d="M0 0h56v16.307H0z"/></clipPath></defs></svg>
